assets/svg/icon-ui-lockin-dark-gray.svg

<?xml version="1.0" encoding="UTF-8" standalone="no"?>
<svg width="33px" height="32px" viewBox="0 0 33 32" version="1.1" xmlns="http://www.w3.org/2000/svg" xmlns:xlink="http://www.w3.org/1999/xlink">
    <!-- Generator: Sketch 3.8.3 (29802) - http://www.bohemiancoding.com/sketch -->
    <title>dark gray/icon-ui-lockin-dark-gray</title>
    <desc>Created with Sketch.</desc>
    <defs></defs>
    <g id="gray" stroke="none" stroke-width="1" fill="none" fill-rule="evenodd">
        <g id="icons,-utility-(gray)" transform="translate(-257.000000, -369.000000)" fill="#242F36">
            <g id="dark-gray/icon-ui-lockin-dark-gray" transform="translate(257.000000, 369.000000)">
                <g id="Fill-94">
                    <g id="PaaS">
                        <g id="paas">
                            <g id="Features">
                                <g id="PaaS-List">
                                    <g id="Lockin">
                                        <g id="Download">
                                            <path d="M16.8985669,0 L15.2205669,0 C14.4999002,0 13.7725669,0.800222222 13.7725669,1.57769444 L13.7725669,15.05 L10.4895669,15.05 C9.76890022,15.05 9.58323354,15.5866111 10.0749002,16.155 L15.0769002,21.9775556 C15.5682335,22.5463056 16.3652335,22.5647222 16.8565669,21.9963334 L21.8582336,16.1456111 C22.3502336,15.5772223 22.1642336,15.05 21.4435668,15.05 L18.1059002,15.05 L18.1059002,1.57769444 C18.1059002,0.800222222 17.6195669,0 16.8985669,0 L16.8985669,0 Z M1.0093689,23.3333334 C0.451909848,23.3333334 -1.5951747e-18,23.799291 2.54713395e-17,24.3275102 L3.67675191e-16,31.0058232 C3.95810056e-16,31.5548918 0.452614414,32 0.993340242,32 L31.0245112,32 C31.5731178,32 32.0178514,31.5340414 32.0178514,31.005821 L32.0178514,24.3274932 C32.0178514,23.7784232 31.587871,23.3333142 31.0039778,23.3333142 L29.0138736,23.3333142 C28.4539266,23.3333142 28,23.7970588 28,24.3383642 L28,26.6616166 C28,27.2166904 27.5419988,27.6666666 26.9993054,27.6666666 L5.00069464,27.6666666 C4.44802624,27.6666666 4,27.202924 4,26.661621 L4,24.338379 C4,23.7833076 3.57192994,23.3333334 2.9906311,23.3333334 L1.0093689,23.3333334 L1.0093689,23.3333334 Z" id="Fill-94"></path>
                                        </g>
                                    </g>
                                </g>
                            </g>
                        </g>
                    </g>
                </g>
            </g>
        </g>
    </g>
</svg>

<svg width="33" height="32" viewBox="0 0 33 32" xmlns="http://www.w3.org/2000/svg"><title>dark gray/icon-ui-lockin-dark-gray</title><path d="M16.899 0H15.22c-.721 0-1.448.8-1.448 1.578V15.05H10.49c-.721 0-.907.537-.415 1.105l5.002 5.823c.491.568 1.288.587 1.78.018l5.001-5.85c.492-.569.306-1.096-.414-1.096h-3.338V1.578C18.106.8 17.62 0 16.899 0zM1.009 23.333c-.557 0-1.009.466-1.009.995v6.678c0 .549.453.994.993.994h30.032c.548 0 .993-.466.993-.994v-6.679a.99.99 0 0 0-1.014-.994h-1.99c-.56 0-1.014.464-1.014 1.005v2.324a1.01 1.01 0 0 1-1 1.005H5c-.552 0-1-.464-1-1.005v-2.324a.992.992 0 0 0-1.01-1.005H1.01z" fill="#242F36" fill-rule="evenodd"/></svg>
